X:865
T:Stormont Lads, The
R:Strathspey
B:The Athole Collection
M:C
L:1/8
K:G
B|G>Bd>B G<B d2|eee>d e<f g2|g>be>g d<G B>d|e>dg>B A2G:|
|:B|G<g g>d B<G B2|A<a a>g a>b e2|g>be>g d<G B>d|e>dg>B A2G:|

